packages/katcn/src/icons/svg/male-solid.svg

<svg width="24" height="25" viewBox="0 0 24 25" fill="none" xmlns="http://www.w3.org/2000/svg">
<path d="M14.2 7.17607C14 7.07607 13.8 7.07607 13.6 6.97607C14.4 6.47607 14.9 5.67607 14.9 4.67607C14.9 3.17607 13.6 1.97607 12.1 1.97607C10.6 1.97607 9.4 3.17607 9.4 4.67607C9.4 5.67607 9.9 6.47607 10.7 6.97607C10.6 6.97607 10.6 6.97607 10.5 6.97607C9 7.67607 8 9.27607 8 10.8761V13.2761C8 14.0761 8.3 14.8761 8.9 15.4761L10.1 16.6761V21.8761C10.1 23.0761 11 23.9761 12.1 23.9761C13.2 23.9761 14.2 23.0761 14.2 21.8761V16.6761L15.4 15.4761C16 14.9761 16.3 14.1761 16.3 13.3761V10.8761C16.3 9.37607 15.5 7.87607 14.2 7.17607Z" fill="black"/>
</svg>

<svg xmlns="http://www.w3.org/2000/svg" fill="none" viewBox="0 0 24 25"><path fill="#000" d="M14.2 7.176c-.2-.1-.4-.1-.6-.2.8-.5 1.3-1.3 1.3-2.3 0-1.5-1.3-2.7-2.8-2.7s-2.7 1.2-2.7 2.7c0 1 .5 1.8 1.3 2.3h-.2c-1.5.7-2.5 2.3-2.5 3.9v2.4c0 .8.3 1.6.9 2.2l1.2 1.2v5.2c0 1.2.9 2.1 2 2.1s2.1-.9 2.1-2.1v-5.2l1.2-1.2c.6-.5.9-1.3.9-2.1v-2.5c0-1.5-.8-3-2.1-3.7"/></svg>
